X:209
T:Baron Manchausen's Quadrilles No.4. Le4.209
M:2/4
L:1/8
Q:2/4=50
B:L.Leadley MS#4 c1850
Z:Village Music Project 2016 Steve Mansfield
K:G
(G/F/G/B/) d(f/g/) | d3 f/g/ | d(f/g/) d(f/g/) | !>!^g2 az |
d/^c/d/f/ ab/c'/ | d3 b/c'/ | (a/b/c'/b/) (d'/c'/)(c'/a/) | !>!f2 gz ||
(B^A/B/ c/B/A/B/) | !>!G4 | B/F/G/A/ B/A/B/d/ | =c2 !>!fz |
(B^A/B/ c/B/A/B/) | A3 A | G/F/G/A/ {A}G/F/G/A/ | F2 dz ||
(G/F/G/B/) df/g/ | d3 (f/g/) | d(f/g/) d(f/g/) | !>!^g2 gz |
(d^c//d//e//d//) B^G | A(g/e/ d/c/B/A/) | (A/G/)(G/B/) (d/c/c/A/) | F2 Gz |
BGdA | BGdA | BBBB | BBBB |
cAeB | cAeB | BGAF | GG G2 !D.C.! |]

